storage/app/icons/phosphoricons/thin/closed-captioning-thin.svg

<svg xmlns="http://www.w3.org/2000/svg" fill="currentColor" viewBox="0 0 256 256"><path d="M224 52H32a12 12 0 0 0-12 12v128a12 12 0 0 0 12 12h192a12 12 0 0 0 12-12V64a12 12 0 0 0-12-12m4 140a4 4 0 0 1-4 4H32a4 4 0 0 1-4-4V64a4 4 0 0 1 4-4h192a4 4 0 0 1 4 4Zm-112.54-38.29a4 4 0 0 1-1.46 5.47 36 36 0 1 1 0-62.36 4 4 0 0 1-4 6.92 28 28 0 1 0 0 48.52 4 4 0 0 1 5.46 1.45m80 0a4 4 0 0 1-1.46 5.47 36 36 0 1 1 0-62.36 4 4 0 0 1-4 6.92 28 28 0 1 0 0 48.52 4 4 0 0 1 5.46 1.45"/></svg>

<svg xmlns="http://www.w3.org/2000/svg" viewBox="0 0 256 256" fill="currentColor"><path d="M224,52H32A12,12,0,0,0,20,64V192a12,12,0,0,0,12,12H224a12,12,0,0,0,12-12V64A12,12,0,0,0,224,52Zm4,140a4,4,0,0,1-4,4H32a4,4,0,0,1-4-4V64a4,4,0,0,1,4-4H224a4,4,0,0,1,4,4ZM115.46,153.71a4,4,0,0,1-1.46,5.47,36,36,0,1,1,0-62.36,4,4,0,0,1-4,6.92,28,28,0,1,0,0,48.52A4,4,0,0,1,115.46,153.71Zm80,0a4,4,0,0,1-1.46,5.47,36,36,0,1,1,0-62.36,4,4,0,0,1-4,6.92,28,28,0,1,0,0,48.52A4,4,0,0,1,195.46,153.71Z"/></svg>
